icons-rebrand/svg/select-all-regular.svg

<svg xmlns="http://www.w3.org/2000/svg" width="32" height="32" viewBox="0 0 32 32" fill="none"><path d="M19.4881 15.5694C19.8026 15.2999 19.839 14.8264 19.5694 14.5119C19.2999 14.1974 18.8264 14.161 18.5119 14.4306L12.0392 19.9786L9.53033 17.4697C9.23744 17.1768 8.76256 17.1768 8.46967 17.4697C8.17678 17.7626 8.17678 18.2374 8.46967 18.5303L11.4697 21.5303C11.7468 21.8074 12.1905 21.8245 12.4881 21.5694L19.4881 15.5694Z M12 4C9.79086 4 8 5.79086 8 8C5.79086 8 4 9.79086 4 12V24C4 26.2091 5.79086 28 8 28H20C22.2091 28 24 26.2091 24 24C26.2091 24 28 22.2091 28 20V8C28 5.79086 26.2091 4 24 4H12ZM12 5.5H24C25.3807 5.5 26.5 6.61929 26.5 8V20C26.5 21.3807 25.3807 22.5 24 22.5V12C24 9.79086 22.2091 8 20 8L9.5 8C9.5 6.61929 10.6193 5.5 12 5.5ZM20 9.5C21.3807 9.5 22.5 10.6193 22.5 12V24C22.5 25.3807 21.3807 26.5 20 26.5H8C6.61929 26.5 5.5 25.3807 5.5 24V12C5.5 10.6193 6.61929 9.5 8 9.5H20Z"/></svg>

<svg data-name="Layer 1" xmlns="http://www.w3.org/2000/svg" viewBox="0 0 32 32"><path d="M19.488 15.569a.75.75 0 0 0-.976-1.138l-6.473 5.548L9.53 17.47a.75.75 0 0 0-1.06 1.06l3 3a.75.75 0 0 0 1.018.039Z" style="fill:#0f0f0f"/><path d="M24 4H12a4 4 0 0 0-4 4 4 4 0 0 0-4 4v12a4 4 0 0 0 4 4h12a4 4 0 0 0 4-4 4 4 0 0 0 4-4V8a4 4 0 0 0-4-4Zm-1.5 20a2.5 2.5 0 0 1-2.5 2.5H8A2.5 2.5 0 0 1 5.5 24V12A2.5 2.5 0 0 1 8 9.5h12a2.5 2.5 0 0 1 2.5 2.5Zm4-4a2.5 2.5 0 0 1-2.5 2.5V12a4 4 0 0 0-4-4H9.5A2.5 2.5 0 0 1 12 5.5h12A2.5 2.5 0 0 1 26.5 8Z" style="fill-rule:evenodd;fill:#0f0f0f"/></svg>
